X:1
T:Abendfeier
T:Conradin Kreutzer
T:M. Hessemer
T:Abendfeier
T:CPDL   —   Creative Commons Attribution Non Commercial 3.0
T:CPDL   —   Creative Commons Attribution Non Commercial 3.0
T:CPDL   —   Creative Commons Attribution Non Commercial 3.0
C:Conradin Kreutzer
Z:M. Hessemer
Z:CPDL   —   Creative Commons Attribution Non Commercial 3.0
%%score [ ( 1 2 ) ( 3 4 ) ]
L:1/8
Q:1/4=80
M:2/4
K:A
V:1 treble-8 nm="Tenor"
V:2 treble-8 
V:3 bass nm="Bass"
V:4 bass 
V:1
"^Allegretto" z | z4 | z2 z!p! e |!<(! ee ee!<)! |!>(! e3/2 f/4e/4!>)! e2 | z4 | z2 z e | %7
w: ||ich|geh' noch a- bends|spät vor- * bei||und|
 e!<(!e ee!<)! |!>(! e3/2 f/4e/4!>)! e2 | z2 z A | fe ^dc |!<(! (B!<)!!>(! b2)!>)! a | ge cf | %13
w: schau' nach dei- nem|Fens- ter * frei,|da|seh' ich dich beim|klei- * nen|Licht mit en- gels-|
 BB c/B/ c/^d/ | e2 z g | g/a/ f/^d/ Bf | f/g/ e/B/ Ge | c/f/f e/^d/ c/d/ | e/^d/ e/f/ g z/ g/ | %19
w: glei- chem An- * ge- *|sicht, da|seh' * ich * dich beim|klei- * nen * Licht mit|en- * gels- glei- * chem _|An- * ge- * sicht, da|
 g/a/ f/^d/ Bf | f/g/ e/B/ Ge | c/f/f!<(! f/a/ g/f/!<)! |!f!!>(! e2 ^d2!>)! | !fermata!e3 |!p! e | %25
w: seh' _ ich * dich beim|klei- * nen * Licht mit|en- * gels- glei- * chem *|An- ge-|sicht.|Da|
 e c/=d/ ef | e c/d/ e z/ e/ | e c/d/ e a/f/ | e c/d/ !fermata!e!p!e |!<(! ^ee ee!<)! | %30
w: bin- dest * du die|Lo- cken * los, sie|fal- len * reich in _|dei- nen * Schoß! Da|fal- test du die|
!f!!>(! f>c!>)! c z/!pp! f/ | ^ee[Q:1/4=72]"^rall." e>e |!pp! f>c c!f!f | %33
w: Hän- de beid' und|be- test still, du|rei- ne Maid. O|
[Q:1/4=80]"^a tempo" !>!f>d dd | Pd/c/ d/e/ ff | !>!f>d dd | Pd/c/ d/e/ f z | z2 z f | %38
w: be- te auch für|mei- * ne * Ruh', mein|gan- zer Him- mel|bist * ja * du,|für|
!>(! f>!>)!e e2 | z2 z!pp! f |[Q:1/4=72]"^calan." !>!f>e !fermata!e!ff!e | (e !>!a2) c | %42
w: mei- ne Ruh,|für|mei- ne Ruh', mein|gan- * zer|
 (c !>!e2) .A | .B2 f>e | !>!c2 z!ff! e | (e/g/ !>!a2) c | (c/^d/ !>!e2) A |!pp! .f2 .e2 | %48
w: Him- * mel|bist ja _|du, mein|gan- * * zer|Him- * * mel|bist ja|
 !fermata!c4 |] %49
w: du.|
V:2
 x | x4 | x2 x c | cc cc | d>d d2 | x4 | x2 x B | BB dd | c>c c2 | x2 x2 | z2 z F | GB c^d | %12
w: ||||||||||||
 eB cc | BB AA | G!pp!"^dolce"B B2- | BB B2- | BB eB | c2 B2 | BB B x/ G/ | A2 z A | G2 z B | %21
w: ||* da seh'|_ ich dich|_ mit en- gels-|glei- chem|* * * da|seh' ich|dich *|
 cc cc | B2 B2 | B3 | c | c A/B/ cd | c A/B/ c x/ c/ | c A/B/ c f/d/ | c A/B/ cc | cc cc | %30
w: |||||||||
 c>c c x/ c/ | cc c>c | c>c cd | d>A AA | BB AA | A>A AA | BB A x | x2 x d | d>d d2 | x2 x d | %40
w: ||||||||||
 d>d dc | (c e2) A | (A c2) E | G2 B2 | A2 x c | (c e2) A | (A c2) c | d2 B2 | A4 |] %49
w: |||||||||
V:3
!p! z | z4 |!>(! z2!>)! z!p! A, |!<(! A,A, ^A,A,!<)! |!>(! B,>G,!>)! B,2 | z4 | z2 z G, | %7
w: |||||||
 G,!<(!G, B,B,!<)! |!>(! A,>A,!>)! A,2 | z4 | z2 z ^D, | E,2 F,2 | G,B, A,A, | G,G, F,F, | %14
w: |||beim|klei- nen|||
 E,2 z!pp! E, | ^D,2 z D, | E,2 z G, | A,A, F,F, | G,G, G, z/ E,/ | ^D,2 z D, | E,2 z G, | %21
w: * da|seh' ich|dich mit|en- gels- glei- chem||||
 A,A,!<(! A, B,/A,/!<)! |!f!!>(! G,2 F,2!>)! | !fermata!G,3 |!p! A, | A,A, A,A, | A,A, A, z/ A,/ | %27
w: ||||||
 A,A, A,A, | A,A, !fermata!A,!p!C |!<(! B,B, B,B,!<)! |!f!!>(! A,>A,!>)! A, z/!pp! A,/ | %31
w: ||||
 B,B, B,>B, |!pp! A,>A, A,!f!A, | !>!A,>F, F,F, | =G,G, F,F, | !>!F,>F, F,F, | =G,G, F, z | %37
w: ||||||
 z2 z B, |!>(! B,>!>)!B, B,2 |!>(! z2 z!>)!!pp! B, | !>!B,>B, !fermata!B,!ff!A, | (A, !>!C2) E, | %42
w: |||||
 (E, !>!A,2) C, | E,2 G,2 | !>!E,2 z!ff! A, | (A, !>!C2) E, | (E, !>!A,2) A, |!pp! A,2 G,2 | %48
w: ||||||
 !fermata!E,4 |] %49
w: |
V:4
 A,, | A,,C, E,A, | C>B, A, z | z4 | z2 z E, | E,G,, B,,E, | !>!B,>A, G,2 | z4 | x3 A,, | %9
w: Ich|geh' noch a- bends|spät vor- bei,||und|schau' nach dei- nem|Fens- ter frei,||da|
 A,G, F,E, | ^D,C, B,,A,, | (G,,2 F,,)B,, | E,G,, A,,A,, | B,,B,, B,,B,, | E,2 x E, | B,,2 x B,, | %16
w: seh' ich dich beim|klei- nen Licht, *||||||
 B,,2 x E, | A,,A,, B,,B,, | E,B,, E, x/ B,,/ | B,,2 x B,, | B,,2 x E, | A,,A,, A,,/F,,/ G,,/A,,/ | %22
w: ||||||
 B,,2 B,,2 | E,3 | A, | A,A, A,D, | A,A,, A, x/ A,/ | A,A, A,D, | A,A,, A,A, | G,G, G,G, | %30
w: ||||||||
 F,>F, F, x/ F,/ | G,G, G,>G, | F,>F, F,D, | D,>D, D,D, | D,D, D,D, | D,>D, D,D, | D,D, D,D, | %37
w: ||||||* * * o|
 D>C B,A, | G,>G, G,E, | D>C B,A, | G,>G, G,A, | A,3 A,, | A,,3 .A,, | .E,2 .E,2 | A,,2 x A, | %45
w: be- te auch *|* * * o|be- te auch *||||||
 A,3 A,, | A,,3 A,, | .D,2 .E,2 | A,,4 |] %49
w: ||||

